src/img/icons/alert-information.svg

<svg xmlns="http://www.w3.org/2000/svg" viewBox="0 0 32 32">
  <path fill="currentColor" d="M28.9 10.5c-.7-1.7-1.7-3.2-3-4.4-1.3-1.3-2.7-2.3-4.4-3C19.8 2.4 17.9 2 16 2s-3.8.4-5.5 1.1c-1.7.7-3.2 1.7-4.4 3-1.3 1.3-2.3 2.7-3 4.4C2.4 12.2 2 14.1 2 16s.4 3.8 1.1 5.5c.7 1.7 1.7 3.2 3 4.4 1.3 1.3 2.7 2.3 4.4 3 1.7.7 3.5 1.1 5.5 1.1 1.9 0 3.7-.4 5.5-1.1 1.7-.7 3.2-1.7 4.4-3 1.3-1.3 2.3-2.7 3-4.4.7-1.7 1.1-3.5 1.1-5.5 0-1.9-.4-3.8-1.1-5.5Zm-4.3 14.1c-2.4 2.4-5.2 3.5-8.6 3.5-3.4 0-6.3-1.2-8.6-3.5C5 22.2 3.9 19.4 3.9 16c0-3.4 1.2-6.3 3.5-8.6s5.2-3.5 8.6-3.5c3.4 0 6.3 1.2 8.6 3.5 2.4 2.4 3.5 5.2 3.5 8.6 0 3.4-1.1 6.2-3.5 8.6ZM16 9c-.4 0-.7.1-.9.4-.2.2-.4.5-.4.9 0 .3.1.6.4.9.2.2.5.4.9.4s.7-.1.9-.4c.2-.2.4-.5.4-.9s-.1-.7-.4-.9c-.2-.3-.5-.4-.9-.4Zm0 5c-.3 0-.5.1-.7.3-.2.2-.3.4-.3.7v7c0 .3.1.5.3.7.2.2.4.3.7.3.3 0 .5-.1.7-.3.2-.2.3-.4.3-.7v-7c0-.3-.1-.5-.3-.7-.2-.2-.4-.3-.7-.3Z"/>
</svg>

<svg width="32" height="32" viewBox="0 0 32 32" fill="none" xmlns="http://www.w3.org/2000/svg">
<path d="M28.9 10.5C28.2 8.8 27.2 7.3 25.9 6.1C24.6 4.8 23.2 3.8 21.5 3.1C19.8 2.4 17.9 2 16 2C14.1 2 12.2 2.4 10.5 3.1C8.8 3.8 7.3 4.8 6.1 6.1C4.8 7.4 3.8 8.8 3.1 10.5C2.4 12.2 2 14.1 2 16C2 17.9 2.4 19.8 3.1 21.5C3.8 23.2 4.8 24.7 6.1 25.9C7.4 27.2 8.8 28.2 10.5 28.9C12.2 29.6 14 30 16 30C17.9 30 19.7 29.6 21.5 28.9C23.2 28.2 24.7 27.2 25.9 25.9C27.2 24.6 28.2 23.2 28.9 21.5C29.6 19.8 30 18 30 16C30 14.1 29.6 12.2 28.9 10.5ZM24.6 24.6C22.2 27 19.4 28.1 16 28.1C12.6 28.1 9.7 26.9 7.4 24.6C5 22.2 3.9 19.4 3.9 16C3.9 12.6 5.1 9.7 7.4 7.4C9.7 5.1 12.6 3.9 16 3.9C19.4 3.9 22.3 5.1 24.6 7.4C27 9.8 28.1 12.6 28.1 16C28.1 19.4 27 22.2 24.6 24.6ZM16 9C15.6 9 15.3 9.1 15.1 9.4C14.9 9.6 14.7 9.9 14.7 10.3C14.7 10.6 14.8 10.9 15.1 11.2C15.3 11.4 15.6 11.6 16 11.6C16.4 11.6 16.7 11.5 16.9 11.2C17.1 11 17.3 10.7 17.3 10.3C17.3 9.9 17.2 9.6 16.9 9.4C16.7 9.1 16.4 9 16 9ZM16 14C15.7 14 15.5 14.1 15.3 14.3C15.1 14.5 15 14.7 15 15V22C15 22.3 15.1 22.5 15.3 22.7C15.5 22.9 15.7 23 16 23C16.3 23 16.5 22.9 16.7 22.7C16.9 22.5 17 22.3 17 22V15C17 14.7 16.9 14.5 16.7 14.3C16.5 14.1 16.3 14 16 14Z" fill="#131212"/>
</svg>
